svgs/thin/mobile-screen-button.svg

<svg xmlns="http://www.w3.org/2000/svg" viewBox="0 0 384 512"><!-- Font Awesome Pro 6.0.0-alpha2 by @fontawesome - https://fontawesome.com License - https://fontawesome.com/license (Commercial License) --><path d="M304 0H80C53.5 0 32 21.5 32 48V464C32 490.5 53.5 512 80 512H304C330.5 512 352 490.5 352 464V48C352 21.5 330.5 0 304 0ZM336 464C336 481.645 321.645 496 304 496H80C62.355 496 48 481.645 48 464V368H336V464ZM336 352H48V48C48 30.355 62.355 16 80 16H304C321.645 16 336 30.355 336 48V352ZM192 464C209.674 464 224 449.672 224 432S209.674 400 192 400C174.328 400 160 414.328 160 432S174.328 464 192 464ZM192 416C200.822 416 208 423.176 208 432S200.822 448 192 448S176 440.824 176 432S183.178 416 192 416Z"/></svg>

<svg xmlns="http://www.w3.org/2000/svg" viewBox="0 0 384 512"><!--! Font Awesome Pro 6.3.0 by @fontawesome - https://fontawesome.com License - https://fontawesome.com/license (Commercial License) Copyright 2023 Fonticons, Inc. --><path d="M304 0h-224C53.5 0 32 21.5 32 48v416C32 490.5 53.5 512 80 512h224c26.5 0 48-21.5 48-48v-416C352 21.5 330.5 0 304 0zM336 464c0 17.64-14.36 32-32 32h-224c-17.64 0-32-14.36-32-32v-96h288V464zM336 352h-288V48c0-17.64 14.36-32 32-32h224c17.64 0 32 14.36 32 32V352zM192 464c17.67 0 32-14.33 32-32s-14.33-32-32-32c-17.67 0-32 14.33-32 32S174.3 464 192 464zM192 416c8.822 0 16 7.176 16 16S200.8 448 192 448s-16-7.176-16-16S183.2 416 192 416z"/></svg>
